site/static/img/watpac.svg

<svg height="39" viewBox="0 0 169 39" width="169" xmlns="http://www.w3.org/2000/svg"><g fill="#1c1c1c" fill-rule="evenodd" opacity=".498641" transform=""><path d="m86.1146497 0-3.1378816 27.0833333h-8.8243836c-.8085825-4.1626124-1.518074-8.8905311-2.131117-14.1836223-.2800972 2.2610912-.9340978 6.9882073-1.9633229 14.1836223h-8.7741775l-3.1563786-27.0833333h6.8610607l.7213824 9.45062044.7398795 9.11820536c.2576365-4.7158795.9037098-10.90481928 1.9461471-18.5688258h7.3472671c.1043759.79405063.3620125 3.76946642.7729098 8.93066175l.774231 10.29001865c.3897579-6.5436942 1.0424373-12.95629513 1.9593593-19.2206804z"/><path d="m96.4344503 17.4160077c-.3683708-3.0662447-.7326787-6.8579167-1.1024039-11.36311064-.734033 5.17925404-1.191788 8.96490654-1.3746191 11.36311064zm3.8353907-17.4160077 4.144172 27.0833333h-7.4148177l-.3588907-4.8701147h-2.6002647l-.4279602 4.8701147h-7.49743l3.6809997-27.0833333z"/><path d="m117.33121 0v5.41910126h-4.385246v21.66423204h-7.387061v-21.66423204h-4.37419v-5.41910126z"/><path d="m125.906134 4.63107021v6.89229529c.214483.0119054.396723.0171224.546721.0171224.693915 0 1.16774-.1602549 1.434091-.4736748.267753-.3203759.402331-.9823969.402331-1.9811135v-2.2268465c0-.92594651-.1514-1.53138336-.461208-1.80467269-.311211-.28011152-.949052-.4231102-1.921935-.4231102zm-7.498491-4.63107021h7.547555c2.042494 0 3.616771.14901826 4.708811.45133538 1.100452.3032535 1.927543.73666389 2.472862 1.30197015.55373.57119208.929426 1.26250839 1.124283 2.06672544.194857.81103924.292986 2.06150846.292986 3.75742724v2.35874238c0 1.73016351-.189249 2.99173561-.566347 3.77976661-.381303.7939169-1.082227 1.3994875-2.095764 1.8278147-1.013537.4221738-2.339686.6328594-3.97284.6328594h-2.013055v10.906692h-7.498491z"/><path d="m143.798271 17.4160077c-.369752-3.0662447-.734087-6.8579167-1.103839-11.36311064-.732733 5.17925404-1.191877 8.96490654-1.373367 11.36311064zm3.83432-17.4160077 4.144479 27.0833333h-7.415366l-.357563-4.8701147h-2.601812l-.427992 4.8701147h-7.49663l3.681272-27.0833333z"/><path d="m169 12.3529932h-7.285261v-4.70599115c0-1.36758608-.08178-2.2221772-.2358-2.56417384-.15402-.33665711-.497497-.50765543-1.029069-.50765543-.601085 0-.98.20517129-1.144924.61538037-.159471.41621604-.242615 1.30511362-.242615 2.6726997v12.55215755c0 1.316994.083144 2.1717187.242615 2.5708482.164924.4043356.524757.6043009 1.091767.6043009.543839 0 .899583-.1999653 1.064507-.6043009.166286-.3991295.253519-1.3384856.253519-2.821272v-3.3837911h7.285261v1.047882c0 2.7923051-.205814 4.775138-.614715 5.9435598-.407539 1.1684218-1.318026 2.1940112-2.717832 3.0718293-1.401169.8759492-3.130822 1.3222001-5.180782 1.3222001-2.139917 0-3.90092-.3777715-5.283007-1.1239702-1.382087-.7461988-2.302115-1.7777952-2.751907-3.0931874-.448428-1.3222001-.674687-3.3050331-.674687-5.9555737v-7.8914189c0-1.94865996.072239-3.40768541.207177-4.38121448.143115-.97513092.550654-1.91528794 1.241697-2.81539853.684229-.90077802 1.635606-1.6128038 2.85277-2.13153874 1.217163-.51286147 2.616969-.77436475 4.193966-.77436475 2.152184 0 3.924091.40420211 5.318445 1.20166031 1.394354.80346516 2.310293 1.8008886 2.75327 2.99747636.437524 1.19658776.655605 3.05981533.655605 5.58461016z"/><path d="m23.6815287 2.90426359v19.74111501l11.8407643 1.1879547v-23.8333333z"/><path d="m.42982503 24.9533253c16.17765597-3.0166494 41.55729347 1.4314286 55.41948337 9.7133414l1.201647-1.9837059c-14.5209-8.6753773-40.113454-13.1641494-57.0509554-10.00441z"/><path d="m11.8407643 12.3221956v14.7611377h9.6878981v-17.3333333z"/><path d="m49.5159236 17.9358967v15.6474366c-3.692087-1.5776674-7.0584421-2.6326186-10.7643312-3.6918598v-14.7248068z"/><path d="m65.1068809 35.6836533c.4744982 0 .8917554-.0378595 1.2623159-.33161.2877116-.2368995.4398523-.5685095.4398523-.9001195 0-.3884609-.1747358-.7769219-.5573471-1.0225772-.3344083-.218648-.6703229-.2471352-1.0755293-.2471352h-1.7473586v2.5014419zm-2.6737599 3.3163467v-6.5h2.6632155c.6808673 0 1.3647472.0663467 1.9085373.4358162.5211949.3609604.8104128.9665895.8104128 1.5161076 0 .5021629-.254572 1.0233172-.6944244 1.3739186-.5317392.4263205-1.1930241.5313899-1.9100436.5313899h-1.7820045v2.6427677z"/><path d="m70.510632 35.5225962c.5029795 0 .9178666-.0283638 1.2887075-.3600971.2614357-.2274039.3822077-.5400224.3822077-.8527643 0-.3789653-.1648182-.6915839-.5242923-.9001196-.3282155-.1989166-.6436434-.2084123-1.0372178-.2084123h-1.8669919v2.3213933zm1.7035946 3.4774038-1.3853251-2.8141838h-2.0758563v2.8141838h-.9377586v-6.5h2.8047505c.6123848 0 1.2006151.0663467 1.7035947.3979567.5015587.3324732.7970947.8717557.7970947 1.4212738 0 .7675495-.5242922 1.4592566-1.3981127 1.667669l1.4748384 3.0131005z"/><path d="m76.6450683 35.7224393c0-.5616381-.0956222-1.2153049-.3911818-1.7217019-.2955597-.4971702-.8009915-.8470706-1.4119803-.8470706-1.4604122 0-1.8615289 1.519191-1.8615289 2.6515743 0 1.0864889.4582416 2.550319 1.8416594 2.550319 1.4020454 0 1.8230316-1.5467518 1.8230316-2.6331208m-4.5240492.0744138c0-1.5751512.8022333-3.2968531 2.6910828-3.2968531 1.8416594 0 2.6910828 1.6204465 2.6910828 3.1763052 0 1.5468716-.8196191 3.3236948-2.681148 3.3236948-1.8789148 0-2.7010176-1.6203267-2.7010176-3.2031469"/><path d="m83.4070017 35.6836533c.4743655 0 .89-.0378595 1.2604568-.33161.2891371-.2368995.4397293-.5685095.4397293-.9001195 0-.3884609-.173181-.7769219-.5556853-1.0225772-.3358206-.218648-.6701353-.2471352-1.0767343-.2471352h-1.7453637v2.5014419zm-2.6745176 3.3163467v-6.5h2.6609643c.6836887 0 1.3658714.0663467 1.9095093.4358162.521049.3609604.811692.9665895.811692 1.5161076 0 .5021629-.2560068 1.0233172-.6942301 1.3739186-.5346024.4263205-1.1941962.5313899-1.9110152.5313899h-1.7799999v2.6427677z"/><path d="m90.4203822 39h-4.3057325v-6.5h4.2085632v.7012029h-3.3731603v2.0656257h2.6753086v.6537243h-2.6753086v2.3782442h3.4703296z"/><path d="m94.1950023 35.5225962c.5001379 0 .9164459-.0283638 1.2872867-.3600971.2614357-.2274039.3822077-.5400224.3822077-.8527643 0-.3789653-.1648182-.6915839-.5242923-.9001196-.3282155-.1989166-.6450642-.2084123-1.0372178-.2084123h-1.8669919v2.3213933zm1.7021738 3.4774038-1.3867459-2.8141838h-2.0744355v2.8141838h-.9391794v-6.5h2.8061713c.6109639 0 1.2006151.0663467 1.7035947.3979567.5015587.3324732.7956739.8717557.7956739 1.4212738 0 .7675495-.5242923 1.4592566-1.3966919 1.667669l1.4734176 3.0131005z"/><path d="m100.160954 39v-5.7893014h-2.20554v-.7106986h5.382166v.7106986h-2.205541v5.7893014z"/><path d="m104.301246 36.2616586v2.7383414h-.8509v-2.7383414l-2.265633-3.7616586h.989928l1.80092 2.9942324 1.818943-2.9942324h.772375z"/></g></svg>

<svg width="169px" height="39px" viewBox="0 0 169 39" version="1.1" xmlns="http://www.w3.org/2000/svg" xmlns:xlink="http://www.w3.org/1999/xlink">
    <!-- Generator: Sketch 48.2 (47327) - http://www.bohemiancoding.com/sketch -->
    <desc>Created with Sketch.</desc>
    <defs></defs>
    <g id="All" stroke="none" stroke-width="1" fill="none" fill-rule="evenodd" opacity="0.498641304">
        <g id="Home" transform="translate(-80.000000, -1239.000000)" fill="#1C1C1C">
            <g id="Group-11" transform="translate(80.000000, 1227.000000)">
                <g id="Group-4" transform="translate(0.000000, 12.000000)">
                    <path d="M86.1146497,0 L82.9767681,27.0833333 L74.1523845,27.0833333 C73.343802,22.9207209 72.6343105,18.1928022 72.0212675,12.899711 C71.7411703,15.1608022 71.0871697,19.8879183 70.0579446,27.0833333 L61.2837671,27.0833333 L58.1273885,0 L64.9884492,0 L65.7098316,9.45062044 L66.4497111,18.5688258 C66.7073476,13.8529463 67.3534209,7.66400652 68.3958582,0 L75.7431253,0 C75.8475012,0.79405063 76.1051378,3.76946642 76.5160351,8.93066175 L77.2902661,19.2206804 C77.680024,12.6769862 78.3327034,6.26438527 79.2496254,0 L86.1146497,0 Z" id="Fill-22"></path>
                    <path d="M96.4344503,17.4160077 C96.0660795,14.349763 95.7017716,10.558091 95.3320464,6.05289706 C94.5980134,11.2321511 94.1402584,15.0178036 93.9574273,17.4160077 L96.4344503,17.4160077 Z M100.269841,0 L104.414013,27.0833333 L96.9991953,27.0833333 L96.6403046,22.2132186 L94.0400399,22.2132186 L93.6120797,27.0833333 L86.1146497,27.0833333 L89.7956494,0 L100.269841,0 Z" id="Fill-23"></path>
                    <polygon id="Fill-24" points="117.33121 0 117.33121 5.41910126 112.945964 5.41910126 112.945964 27.0833333 105.558903 27.0833333 105.558903 5.41910126 101.184713 5.41910126 101.184713 0"></polygon>
                    <path d="M125.906134,4.63107021 L125.906134,11.5233655 C126.120617,11.5352709 126.302857,11.5404879 126.452855,11.5404879 C127.14677,11.5404879 127.620595,11.380233 127.886946,11.0668131 C128.154699,10.7464372 128.289277,10.0844162 128.289277,9.0856996 L128.289277,6.8588531 C128.289277,5.93290659 128.137877,5.32746974 127.828069,5.05418041 C127.516858,4.77406889 126.879017,4.63107021 125.906134,4.63107021 Z M118.407643,0 L125.955198,0 C127.997692,0 129.571969,0.149018262 130.664009,0.451335381 C131.764461,0.754588882 132.591552,1.18799927 133.136871,1.75330553 C133.690601,2.32449761 134.066297,3.01581392 134.261154,3.82003097 C134.456011,4.63107021 134.55414,5.88153943 134.55414,7.57745821 L134.55414,9.93620059 C134.55414,11.6663641 134.364891,12.9279362 133.987793,13.7159672 C133.60649,14.5098841 132.905566,15.1154547 131.892029,15.5437819 C130.878492,15.9659557 129.552343,16.1766413 127.919189,16.1766413 L125.906134,16.1766413 L125.906134,27.0833333 L118.407643,27.0833333 L118.407643,0 Z" id="Fill-25"></path>
                    <path d="M143.798271,17.4160077 C143.428519,14.349763 143.064184,10.558091 142.694432,6.05289706 C141.961699,11.2321511 141.502555,15.0178036 141.321065,17.4160077 L143.798271,17.4160077 Z M147.632591,0 L151.77707,27.0833333 L144.361704,27.0833333 L144.004141,22.2132186 L141.402329,22.2132186 L140.974337,27.0833333 L133.477707,27.0833333 L137.158979,0 L147.632591,0 Z" id="Fill-26"></path>
                    <path d="M169,12.3529932 L161.714739,12.3529932 L161.714739,7.64700205 C161.714739,6.27941597 161.632959,5.42482485 161.478939,5.08282821 C161.324919,4.7461711 160.981442,4.57517278 160.44987,4.57517278 C159.848785,4.57517278 159.46987,4.78034407 159.304946,5.19055315 C159.145475,5.60676919 159.062331,6.49566677 159.062331,7.86325285 L159.062331,20.4154104 C159.062331,21.7324044 159.145475,22.5871291 159.304946,22.9862586 C159.46987,23.3905942 159.829703,23.5905595 160.396713,23.5905595 C160.940552,23.5905595 161.296296,23.3905942 161.46122,22.9862586 C161.627506,22.5871291 161.714739,21.647773 161.714739,20.1649866 L161.714739,16.7811955 L169,16.7811955 L169,17.8290775 C169,20.6213826 168.794186,22.6042155 168.385285,23.7726373 C167.977746,24.9410591 167.067259,25.9666485 165.667453,26.8444666 C164.266284,27.7204158 162.536631,28.1666667 160.486671,28.1666667 C158.346754,28.1666667 156.585751,27.7888952 155.203664,27.0426965 C153.821577,26.2964977 152.901549,25.2649013 152.451757,23.9495091 C152.003329,22.627309 151.77707,20.644476 151.77707,17.9939354 L151.77707,10.1025165 C151.77707,8.15385654 151.849309,6.69483109 151.984247,5.72130202 C152.127362,4.7461711 152.534901,3.80601408 153.225944,2.90590349 C153.910173,2.00512547 154.86155,1.29309969 156.078714,0.774364746 C157.295877,0.261503282 158.695683,0 160.27268,0 C162.424864,0 164.196771,0.404202112 165.591125,1.20166031 C166.985479,2.00512547 167.901418,3.00254891 168.344395,4.19913667 C168.781919,5.39572443 169,7.258952 169,9.78374683 L169,12.3529932 Z" id="Fill-27"></path>
                    <polygon id="Fill-28" points="23.6815287 2.90426359 23.6815287 22.6453786 35.522293 23.8333333 35.522293 0"></polygon>
                    <path d="M0.429825028,24.9533253 C16.607481,21.9366759 41.9871185,26.3847539 55.8493084,34.6666667 L57.0509554,32.6829608 C42.5300554,24.0075835 16.9375014,19.5188114 0,22.6785508 L0.429825028,24.9533253 Z" id="Fill-29"></path>
                    <polygon id="Fill-30" points="11.8407643 12.3221956 11.8407643 27.0833333 21.5286624 27.0833333 21.5286624 9.75"></polygon>
                    <path d="M49.5159236,17.9358967 L49.5159236,33.5833333 C45.8238366,32.0056659 42.4574815,30.9507147 38.7515924,29.8914735 L38.7515924,15.1666667 L49.5159236,17.9358967 Z" id="Fill-31"></path>
                    <path d="M65.1068809,35.6836533 C65.5813791,35.6836533 65.9986363,35.6457938 66.3691968,35.3520433 C66.6569084,35.1151438 66.8090491,34.7835338 66.8090491,34.4519238 C66.8090491,34.0634629 66.6343133,33.6750019 66.251702,33.4293466 C65.9172937,33.2106986 65.5813791,33.1822114 65.1761727,33.1822114 L63.4288141,33.1822114 L63.4288141,35.6836533 L65.1068809,35.6836533 Z M62.433121,39 L62.433121,32.5 L65.0963365,32.5 C65.7772038,32.5 66.4610837,32.5663467 67.0048738,32.9358162 C67.5260687,33.2967766 67.8152866,33.9024057 67.8152866,34.4519238 C67.8152866,34.9540867 67.5607146,35.475241 67.1208622,35.8258424 C66.589123,36.2521629 65.9278381,36.3572323 65.2108186,36.3572323 L63.4288141,36.3572323 L63.4288141,39 L62.433121,39 Z" id="Fill-32"></path>
                    <path d="M70.510632,35.5225962 C71.0136115,35.5225962 71.4284986,35.4942324 71.7993395,35.1624991 C72.0607752,34.9350952 72.1815472,34.6224767 72.1815472,34.3097348 C72.1815472,33.9307695 72.016729,33.6181509 71.6572549,33.4096152 C71.3290394,33.2106986 71.0136115,33.2012029 70.6200371,33.2012029 L68.7530452,33.2012029 L68.7530452,35.5225962 L70.510632,35.5225962 Z M72.2142266,39 L70.8289015,36.1858162 L68.7530452,36.1858162 L68.7530452,39 L67.8152866,39 L67.8152866,32.5 L70.6200371,32.5 C71.2324219,32.5 71.8206522,32.5663467 72.3236318,32.8979567 C72.8251905,33.2304299 73.1207265,33.7697124 73.1207265,34.3192305 C73.1207265,35.08678 72.5964343,35.7784871 71.7226138,35.9868995 L73.1974522,39 L72.2142266,39 Z" id="Fill-33"></path>
                    <path d="M76.6450683,35.7224393 C76.6450683,35.1608012 76.5494461,34.5071344 76.2538865,34.0007374 C75.9583268,33.5035672 75.452895,33.1536668 74.8419062,33.1536668 C73.381494,33.1536668 72.9803773,34.6728578 72.9803773,35.8052411 C72.9803773,36.89173 73.4386189,38.3555601 74.8220367,38.3555601 C76.2240821,38.3555601 76.6450683,36.8088083 76.6450683,35.7224393 M72.1210191,35.7968531 C72.1210191,34.2217019 72.9232524,32.5 74.8121019,32.5 C76.6537613,32.5 77.5031847,34.1204465 77.5031847,35.6763052 C77.5031847,37.2231768 76.6835656,39 74.8220367,39 C72.9431219,39 72.1210191,37.3796733 72.1210191,35.7968531" id="Fill-34"></path>
                    <path d="M83.4070017,35.6836533 C83.8813672,35.6836533 84.2970017,35.6457938 84.6674585,35.3520433 C84.9565956,35.1151438 85.1071878,34.7835338 85.1071878,34.4519238 C85.1071878,34.0634629 84.9340068,33.6750019 84.5515025,33.4293466 C84.2156819,33.2106986 83.8813672,33.1822114 83.4747682,33.1822114 L81.7294045,33.1822114 L81.7294045,35.6836533 L83.4070017,35.6836533 Z M80.7324841,39 L80.7324841,32.5 L83.3934484,32.5 C84.0771371,32.5 84.7593198,32.5663467 85.3029577,32.9358162 C85.8240067,33.2967766 86.1146497,33.9024057 86.1146497,34.4519238 C86.1146497,34.9540867 85.8586429,35.475241 85.4204196,35.8258424 C84.8858172,36.2521629 84.2262234,36.3572323 83.5094044,36.3572323 L81.7294045,36.3572323 L81.7294045,39 L80.7324841,39 Z" id="Fill-35"></path>
                    <polygon id="Fill-36" points="90.4203822 39 86.1146497 39 86.1146497 32.5 90.3232129 32.5 90.3232129 33.2012029 86.9500526 33.2012029 86.9500526 35.2668286 89.6253612 35.2668286 89.6253612 35.9205529 86.9500526 35.9205529 86.9500526 38.2987971 90.4203822 38.2987971"></polygon>
                    <path d="M94.1950023,35.5225962 C94.6951402,35.5225962 95.1114482,35.4942324 95.482289,35.1624991 C95.7437247,34.9350952 95.8644967,34.6224767 95.8644967,34.3097348 C95.8644967,33.9307695 95.6996785,33.6181509 95.3402044,33.4096152 C95.0119889,33.2106986 94.6951402,33.2012029 94.3029866,33.2012029 L92.4359947,33.2012029 L92.4359947,35.5225962 L94.1950023,35.5225962 Z M95.8971761,39 L94.5104302,36.1858162 L92.4359947,36.1858162 L92.4359947,39 L91.4968153,39 L91.4968153,32.5 L94.3029866,32.5 C94.9139505,32.5 95.5036017,32.5663467 96.0065813,32.8979567 C96.50814,33.2304299 96.8022552,33.7697124 96.8022552,34.3192305 C96.8022552,35.08678 96.2779629,35.7784871 95.4055633,35.9868995 L96.8789809,39 L95.8971761,39 Z" id="Fill-37"></path>
                    <polygon id="Fill-38" points="100.160954 39 100.160954 33.2106986 97.955414 33.2106986 97.955414 32.5 103.33758 32.5 103.33758 33.2106986 101.132039 33.2106986 101.132039 39"></polygon>
                    <polygon id="Fill-39" points="104.301246 36.2616586 104.301246 39 103.450346 39 103.450346 36.2616586 101.184713 32.5 102.174641 32.5 103.975561 35.4942324 105.794504 32.5 106.566879 32.5"></polygon>
                </g>
            </g>
        </g>
    </g>
</svg>
